data/img/material/white/pin.svg

<svg viewBox="0 0 24 24">
    <path fill="#fff" d="M 15.9994,11.9981L 15.9994,3.99807L 16.9994,3.99807L 16.9994,1.99807L 6.99939,1.99807L 6.99939,3.99807L 7.99939,3.99807L 7.99939,11.9981L 5.99939,13.9981L 5.99939,15.9981L 11.1994,15.9981L 11.1994,21.9981L 12.7994,21.9981L 12.7994,15.9981L 17.9994,15.9981L 17.9994,13.9981L 15.9994,11.9981 Z"/>
</svg>

<svg xmlns="http://www.w3.org/2000/svg" viewBox="0 0 24 24">
	<path fill="#FFF" d="M16 12V4h1V2H7v2h1v8l-2 2v2h5.2v6h1.6v-6H18v-2l-2-2z"/>
</svg>
